X: 22249
T: La Grande Chaine
R: barndance
M: 4/4
K: Gmajor
GA|:B2 Bc BAGB|d2 d2 BGBd|cdcB ADFA|dedc BDGA|
B2 Bc BAGB|d2 d2 BGBd|cdcB ADFA|1 G4 G2:|2 G4 G2(3def||
|:g2 gf efge|d2 d2 BGBd|cdcB ADFA|dedc Bdef|
g2 gf efge|d2 d2 BGBd|cdcB ADFA|G4 G2 (3def|
g2 gf efge|d2 d2 BGBd|cdcB ADFA|dedc BDGA|
B2 Bc BAGB|d2 d2 BGBd|cdcB ADFA|G4 G2 G2||

